icons/svg/x-twitter.svg

<svg width="24" height="24" viewBox="0 0 24 24" fill="none" xmlns="http://www.w3.org/2000/svg">
<path d="M13.081 10.7117L8.29474 4.00158C8.18213 3.84371 8.00018 3.75 7.80626 3.75L5.28025 3.75003C4.79241 3.75003 4.5085 4.30129 4.79179 4.69845L10.9189 13.2884M13.081 10.7117L19.2081 19.3016C19.4914 19.6987 19.2075 20.25 18.7197 20.25L16.1937 20.25C15.9997 20.25 15.8178 20.1563 15.7052 19.9985L10.9189 13.2884M13.081 10.7117L18.9226 3.75M10.9189 13.2884L5.07744 20.25" stroke="currentColor" stroke-width="1.5" stroke-linecap="round" stroke-linejoin="round"/>
</svg>

<svg xmlns="http://www.w3.org/2000/svg" width="24" height="24" fill="none" viewBox="0 0 24 24"><path stroke="currentColor" stroke-linecap="round" stroke-linejoin="round" stroke-width="1.5" d="m13.081 10.712-4.786-6.71a.6.6 0 0 0-.489-.252H5.28a.6.6 0 0 0-.488.948l6.127 8.59m2.162-2.576 6.127 8.59a.6.6 0 0 1-.488.948h-2.526a.6.6 0 0 1-.489-.252l-4.786-6.71m2.162-2.576 5.842-6.962m-8.004 9.538L5.077 20.25"/></svg>
